X:1
T:Title
%%score { ( 1 4 ) | ( 2 3 ) }
L:1/8
M:4/4
K:C
V:1 treble nm="Grand Piano"
V:4 treble 
V:2 treble 
V:3 treble 
V:1
 z4 z[Q:1/4=100] GA[GB] | [EGc]2 [EGc]2 [EGB]2 [EB]2 | [EGA]2 [EGA]4 ._E2 | %3
 [CEG]2 [CEA]2 [CG]2 [CGc]2 | [FGB]6 [GB][Ac] | [FBd]2 [FBd]2 [FAc]2 [FAc]2 | %6
 [FGB]2 [FGB]2- [FGB]F[^CE]F | [FB]2 [FA]2 [DG]2 [_EA]2 | [EG]4- [EG]G[GA][FGB] | %9
 [EGc]2 [EGc]2 [EGB]2 [EGB]2 | [EGA]2 [EGA]2- [EGA]G[E^F]G | [EGc]2 [EGc]2 [EGA^c]2 [EGAc]2 | %12
 [FAd]4- [FAd]A^GA | d2 c2 B2 A2 | c2 G2- GEF^F | G2 ^G2 A2 [F=GB]2 | [EGc]6[K:bass] z2 | %17
 [ce]4 [Ae]4 | [Ge]6 z2 | [Af]2 [Ge]2 [Ge]2 [Fd]2 | [Ec]6 [C_Bc]2 | [CAc]2 [D^GB]2 [CAc]2 [CFA]2 | %22
 [CEG]2 [CFA]2 [DGB]2 [CGc]2 | [^Fe]2 [FA]2 [FB]2 [Fc]2 | z2 gg g2 g2 | [ce]4 [Ae]4 | [Ge]6 z2 | %27
 [Af]2 [Ge]2 [^Ge]2 [Bd]2 | [Ac]6 [EB][Ec] | d2 c2 B2 A2 | c2 G2- GEF^F | G2 ^G2 A2 [DFB]2 | %32
[M:5/8] [CEc]- [CEc]3 z |] %33
V:2
 z4 z2 ^F=F | C,2 G,2 G,,2 G,2 | C,2 G,2 z E z E | C,2 G,2 E,2 _E,2 | D,2 G,2 z[K:treble] G z ^F | %5
 D,2 G,2 G,,2 G,2 | D,2 G,2 z D z D | D,2 G,2 G,,2 G,2 | C,2 A,2 G,F,E,D, | C,2 G,2 G,,2 G,2 | %10
 C,2 G,2 z E z E | C,2 G,2 A,,2 A,2 | D,2 F,A, D2 z2 | [F,A,F]2 [F,A,F]2 [^F,B,_E]2 [F,CE]2 | %14
 [G,CE]2 [E,C]2- [E,C]E,F,^F, | G,2 ^G,2 A,2 [G,,=G,]2 | [C,C]2 G,,2 C,,2 z2 | C,2 G,2 G,,2 G,2 | %18
 z4 z2[K:treble] [G,CE]2 | D,2 [G,B,]2 G,,2 [G,B,]2 | C,2 E,G, C2 C,2 | F,2 F,2 F,2 F,2 | %22
 C,2 F,2 F,2 E,2 | [D,C]2 [D,C]2 [D,B,]2 [D,A,]2 | z2 GG G2 G2 | C,2 G,2 G,,2 G,2 | %26
 z4 z2[K:treble] [G,CE]2 | C,2 [G,CE]2 E,,2 [E,^G,D]2 | A,,2 C,E, A,2 [A,,A,][A,,A,] | %29
 [F,A,F]2 [F,A,F]2 [^F,B,_E]2 [F,CE]2 | [G,CE]2 [E,C]2- [E,C]E,F,^F, | G,2 ^G,2 A,2 G,2 | %32
[M:5/8] C,- C,3 z |] %33
V:3
 x8 | x8 | z4 G,,2 G,2 | x8 | z4 G,,2[K:treble] G,2 | x8 | z4 G,,2 G,2 | x8 | x8 | x8 | %10
 z4 G,,2 G,2 | x8 | x8 | x8 | x8 | x8 | x8 | x8 | C,2 G,2 G,,2[K:treble] ^FG | x8 | x8 | x8 | x8 | %23
 x8 | [G,B,F]6 z2 | x8 | C,2 G,2 G,,2[K:treble] ^FG | x8 | x8 | x8 | x8 | x8 |[M:5/8] x5 |] %33
V:4
 x8 | x8 | x8 | x8 | x8 | x8 | x8 | x8 | x8 | x8 | x8 | x8 | x8 | x8 | x8 | x8 | %16
 z2[K:bass] G,2 E,2 z2 | z2 [CE]2 z2 [CE]2 | z2 [CE]2 z2 _e=e | x8 | x8 | x8 | x8 | x8 | d6 z2 | %25
 z2 [CE]2 z2 [CE]2 | z2 [CE]2 z2 _e=e | x8 | x8 | x8 | x8 | x8 |[M:5/8] x5 |] %33

